src/icons/icons_set_03/025-suivant.svg

<svg height="50" viewBox="0 0 50 50" width="50" xmlns="http://www.w3.org/2000/svg"><path d="m25.2660567 32.1750337 16.829288-19.7943817c.8943412-1.0519121 2.4720912-1.1796486 3.5240033-.2853073 1.0519121.8943412 1.1796486 2.4720912.2853073 3.5240033l-18.7045162 22c-.9882502 1.1623666-2.7781528 1.176137-3.7841701.0291132l-19.29548375-22c-.91041998-1.0380273-.80697378-2.617556.23105356-3.5279759 1.03802733-.91042 2.61755596-.8069738 3.52797594.2310535z" transform="matrix(0 -1 1 0 .000033 49.999983)"/></svg>

<?xml version="1.0" encoding="UTF-8"?>
<svg width="50px" height="50px" viewBox="0 0 50 50" version="1.1" xmlns="http://www.w3.org/2000/svg" xmlns:xlink="http://www.w3.org/1999/xlink">
    <!-- Generator: Sketch 52.4 (67378) - http://www.bohemiancoding.com/sketch -->
    <title>025-suivant</title>
    <desc>Created with Sketch.</desc>
    <g id="025-suivant" stroke="none" stroke-width="1" fill="none" fill-rule="evenodd">
        <path d="M25.2660567,32.1750337 L42.0953447,12.380652 C42.9896859,11.3287399 44.5674359,11.2010034 45.619348,12.0953447 C46.6712601,12.9896859 46.7989966,14.5674359 45.9046553,15.619348 L27.2001391,37.619348 C26.2118889,38.7817146 24.4219863,38.795485 23.415969,37.6484612 L4.12048525,15.6484612 C3.21006527,14.6104339 3.31351147,13.0309052 4.35153881,12.1204853 C5.38956614,11.2100653 6.96909477,11.3135115 7.87951475,12.3515388 L25.2660567,32.1750337 Z" id="Path-4" fill="#000000" fill-rule="nonzero" transform="translate(25.000008, 24.999975) rotate(-90.000000) translate(-25.000008, -24.999975) "></path>
    </g>
</svg>
